images_sukapura_svg/cmd/lc_unsetcellsreadonly.svg

<?xml version="1.0" encoding="UTF-8" standalone="no"?>
<svg
   xmlns:dc="http://purl.org/dc/elements/1.1/"
   xmlns:cc="http://creativecommons.org/ns#"
   xmlns:rdf="http://www.w3.org/1999/02/22-rdf-syntax-ns#"
   xmlns:svg="http://www.w3.org/2000/svg"
   xmlns="http://www.w3.org/2000/svg"
   xmlns:sodipodi="http://sodipodi.sourceforge.net/DTD/sodipodi-0.dtd"
   xmlns:inkscape="http://www.inkscape.org/namespaces/inkscape"
   viewBox="0 0 24 24"
   version="1.1"
   id="svg6"
   sodipodi:docname="lc_unsetcellsreadonly.svg"
   inkscape:version="0.92.3 (unknown)"
   inkscape:export-filename="/home/rizmut/Dokumen/Rizmut/Github/libreoffice-style-sukapura/images_sukapura/cmd/lc_unsetcellsreadonly.png"
   inkscape:export-xdpi="96"
   inkscape:export-ydpi="96">
  <metadata
     id="metadata12">
    <rdf:RDF>
      <cc:Work
         rdf:about="">
        <dc:format>image/svg+xml</dc:format>
        <dc:type
           rdf:resource="http://purl.org/dc/dcmitype/StillImage" />
        <dc:title></dc:title>
      </cc:Work>
    </rdf:RDF>
  </metadata>
  <defs
     id="defs10">
    <clipPath
       clipPathUnits="userSpaceOnUse"
       id="clipPath837">
      <rect
         style="opacity:1;fill:#ff9500;fill-opacity:1;stroke:#0040dd;stroke-width:2;stroke-linecap:round;stroke-linejoin:round;stroke-miterlimit:4;stroke-dasharray:none;stroke-opacity:1"
         id="rect839"
         width="45"
         height="45"
         x="985"
         y="-496"
         rx="0.5"
         ry="0.5" />
    </clipPath>
  </defs>
  <sodipodi:namedview
     pagecolor="#ffffff"
     bordercolor="#666666"
     borderopacity="1"
     objecttolerance="10"
     gridtolerance="10"
     guidetolerance="10"
     inkscape:pageopacity="0"
     inkscape:pageshadow="2"
     inkscape:window-width="1366"
     inkscape:window-height="699"
     id="namedview8"
     showgrid="true"
     inkscape:snap-smooth-nodes="true"
     inkscape:zoom="19.666667"
     inkscape:cx="17.470535"
     inkscape:cy="7.3913015"
     inkscape:window-x="0"
     inkscape:window-y="0"
     inkscape:window-maximized="1"
     inkscape:current-layer="g830">
    <inkscape:grid
       type="xygrid"
       id="grid822" />
  </sodipodi:namedview>
  <g
     id="g841">
    <g
       id="g825"
       transform="translate(-2)">
      <path
         style="fill:#a48200;fill-opacity:1"
         d="m 5,12 c -0.554,0 -1,0.446 -1,1 v 8 c 0,0.554 0.446,1 1,1 h 14 c 0.554,0 1,-0.446 1,-1 v -8 c 0,-0.554 -0.446,-1 -1,-1 H 17 16 8 7 Z m 0,1 h 1 12 1 v 1 6 1 H 18 6 5 v -1 -6 z"
         id="path2"
         inkscape:connector-curvature="0" />
      <path
         d="m 5,13 h 14 v 8 H 5 Z"
         id="path4"
         style="fill:#ffcc00;fill-opacity:1;stroke:none"
         inkscape:connector-curvature="0" />
      <rect
         style="opacity:1;fill:#a05a00;fill-opacity:1;stroke:none;stroke-width:2;stroke-linecap:round;stroke-linejoin:round;stroke-miterlimit:4;stroke-dasharray:none;stroke-opacity:1"
         id="rect841"
         width="14"
         height="1"
         x="5"
         y="16"
         rx="0"
         ry="0" />
      <rect
         ry="0"
         rx="0"
         y="18"
         x="5"
         height="1"
         width="14"
         id="rect843"
         style="opacity:1;fill:#a05a00;fill-opacity:1;stroke:none;stroke-width:2;stroke-linecap:round;stroke-linejoin:round;stroke-miterlimit:4;stroke-dasharray:none;stroke-opacity:1" />
    </g>
    <g
       id="g830"
       transform="translate(5)">
      <path
         style="fill:#69696e;fill-opacity:1"
         d="M 12,2 A 5,5 0 0 0 7,7 v 5 H 8 V 7 a 4,4 0 0 1 4,-4 4,4 0 0 1 4,4 v 5 h 1 V 7 A 5,5 0 0 0 12,2 Z"
         id="path845"
         inkscape:connector-curvature="0" />
      <path
         style="fill:#ebebeb;fill-opacity:1"
         d="M 12,3 C 9.790861,3 8,4.790861 8,7 v 5 H 9 V 7 c 0,-1.6568542 1.343146,-3 3,-3 1.656854,0 3,1.3431458 3,3 v 5 h 1 V 7 C 16,4.790861 14.209139,3 12,3 Z"
         id="path860"
         inkscape:connector-curvature="0" />
      <path
         style="fill:#69696e;fill-opacity:1;stroke-width:0.60000002"
         d="M 12,4 C 10.343146,4 9,5.3431458 9,7 v 5 h 1 V 7.3339844 c 0,-1.1045695 0.895431,-2 2,-2 1.10457,0 2,0.8954305 2,2 V 12 h 1 V 7 C 15,5.3431458 13.656854,4 12,4 Z"
         id="path853"
         inkscape:connector-curvature="0" />
      <path
         style="opacity:1;fill:#69696e;fill-opacity:1;stroke:none;stroke-width:1;stroke-linecap:round;stroke-linejoin:round;stroke-miterlimit:4;stroke-dasharray:none;stroke-opacity:0"
         d="m 14,12 h 3 v 1 h -3 z"
         id="rect844" />
    </g>
  </g>
</svg>

<svg viewBox="0 0 24 24" xmlns="http://www.w3.org/2000/svg"><g transform="translate(-2)"><path d="m5 12c-.554 0-1 .446-1 1v8c0 .554.446 1 1 1h14c.554 0 1-.446 1-1v-8c0-.554-.446-1-1-1h-2-1-8-1zm0 1h1 12 1v1 6 1h-1-12-1v-1-6z" fill="#a48200"/><path d="m5 13h14v8h-14z" fill="#fc0"/><g fill="#a05a00"><path d="m5 16h14v1h-14z"/><path d="m5 18h14v1h-14z"/></g></g><g transform="translate(5)"><path d="m12 2a5 5 0 0 0 -5 5v5h1v-5a4 4 0 0 1 4-4 4 4 0 0 1 4 4v5h1v-5a5 5 0 0 0 -5-5z" fill="#69696e"/><path d="m12 3c-2.209139 0-4 1.790861-4 4v5h1v-5c0-1.6568542 1.343146-3 3-3s3 1.3431458 3 3v5h1v-5c0-2.209139-1.790861-4-4-4z" fill="#ebebeb"/><g fill="#69696e"><path d="m12 4c-1.656854 0-3 1.3431458-3 3v5h1v-4.6660156c0-1.1045695.895431-2 2-2 1.10457 0 2 .8954305 2 2v4.6660156h1v-5c0-1.6568542-1.343146-3-3-3z" stroke-width=".6"/><path d="m14 12h3v1h-3z"/></g></g></svg>
